icons/svg/shields/h_topo_barrier_lift_gate_shield.svg

<?xml version="1.0" encoding="UTF-8" standalone="no"?>
<!-- Created with Inkscape (http://www.inkscape.org/) -->

<svg
   xmlns:dc="http://purl.org/dc/elements/1.1/"
   xmlns:cc="http://creativecommons.org/ns#"
   xmlns:rdf="http://www.w3.org/1999/02/22-rdf-syntax-ns#"
   xmlns:svg="http://www.w3.org/2000/svg"
   xmlns="http://www.w3.org/2000/svg"
   xmlns:sodipodi="http://sodipodi.sourceforge.net/DTD/sodipodi-0.dtd"
   xmlns:inkscape="http://www.inkscape.org/namespaces/inkscape"
   version="1.0"
   width="16"
   height="16"
   id="svg2"
   sodipodi:version="0.32"
   inkscape:version="0.91 r13725"
   sodipodi:docname="h_topo_barrier_lift_gate_shield.svg"
   inkscape:output_extension="org.inkscape.output.svg.inkscape">
  <metadata
     id="metadata10">
    <rdf:RDF>
      <cc:Work
         rdf:about="">
        <dc:format>image/svg+xml</dc:format>
        <dc:type
           rdf:resource="http://purl.org/dc/dcmitype/StillImage" />
        <cc:license
           rdf:resource="http://web.resource.org/cc/PublicDomain" />
        <dc:language>en</dc:language>
        <dc:title />
      </cc:Work>
    </rdf:RDF>
  </metadata>
  <sodipodi:namedview
     inkscape:window-height="1006"
     inkscape:window-width="1920"
     inkscape:pageshadow="2"
     inkscape:pageopacity="0.0"
     guidetolerance="10.0"
     gridtolerance="10.0"
     objecttolerance="10.0"
     borderopacity="1.0"
     bordercolor="#666666"
     pagecolor="#ffffff"
     id="base"
     showgrid="false"
     inkscape:zoom="32"
     inkscape:cx="-9.890308"
     inkscape:cy="8.0147617"
     inkscape:window-x="1920"
     inkscape:window-y="0"
     inkscape:current-layer="svg2"
     inkscape:window-maximized="1" />
  <defs
     id="defs4">
    <inkscape:perspective
       sodipodi:type="inkscape:persp3d"
       inkscape:vp_x="0 : 290 : 1"
       inkscape:vp_y="0 : 1000 : 0"
       inkscape:vp_z="580 : 290 : 1"
       inkscape:persp3d-origin="290 : 193.33333 : 1"
       id="perspective12" />
    <style
       type="text/css"
       id="style6">
   
    .fil0 {fill:#EF7900}
   
  </style>
    <inkscape:perspective
       id="perspective6807"
       inkscape:persp3d-origin="29.116032 : 19.410688 : 1"
       inkscape:vp_z="58.232063 : 29.116032 : 1"
       inkscape:vp_y="0 : 1000 : 0"
       inkscape:vp_x="0 : 29.116032 : 1"
       sodipodi:type="inkscape:persp3d" />
    <inkscape:perspective
       id="perspective6954"
       inkscape:persp3d-origin="290 : 193.33333 : 1"
       inkscape:vp_z="580 : 290 : 1"
       inkscape:vp_y="0 : 1000 : 0"
       inkscape:vp_x="0 : 290 : 1"
       sodipodi:type="inkscape:persp3d" />
    <inkscape:perspective
       id="perspective2541"
       inkscape:persp3d-origin="240 : 160 : 1"
       inkscape:vp_z="480 : 240 : 1"
       inkscape:vp_y="0 : 1000 : 0"
       inkscape:vp_x="0 : 240 : 1"
       sodipodi:type="inkscape:persp3d" />
    <inkscape:perspective
       id="perspective2750"
       inkscape:persp3d-origin="215 : 143.33333 : 1"
       inkscape:vp_z="430 : 215 : 1"
       inkscape:vp_y="0 : 1000 : 0"
       inkscape:vp_x="0 : 215 : 1"
       sodipodi:type="inkscape:persp3d" />
    <inkscape:perspective
       id="perspective3730"
       inkscape:persp3d-origin="88.929146 : 101.19778 : 1"
       inkscape:vp_z="177.85829 : 151.79668 : 1"
       inkscape:vp_y="0 : 1000 : 0"
       inkscape:vp_x="0 : 151.79668 : 1"
       sodipodi:type="inkscape:persp3d" />
  </defs>
  <path
     style="color:#000000;font-style:normal;font-variant:normal;font-weight:normal;font-stretch:normal;font-size:medium;line-height:normal;font-family:Sans;-inkscape-font-specification:Sans;text-indent:0;text-align:start;text-decoration:none;text-decoration-line:none;letter-spacing:normal;word-spacing:normal;text-transform:none;direction:ltr;block-progression:tb;writing-mode:lr-tb;baseline-shift:baseline;text-anchor:start;display:inline;overflow:visible;visibility:visible;opacity:1;fill:#fefefe;fill-opacity:1;fill-rule:nonzero;stroke:none;stroke-width:4.81759071;marker:none;enable-background:accumulate"
     d="M 3.058151,2.8580965 C 2.5683741,2.8581348 2.224747,3.0681943 1.974333,3.3187192 1.7241317,3.5689205 1.5137104,3.9126825 1.5137104,4.4025371 l 0,7.3157709 c 0,0.489891 0.2101266,0.833433 0.4606226,1.083818 0.3400666,0.340067 0.7738635,0.433528 1.083818,0.433528 l 1.0567226,0 c 0.3100119,0 0.7435486,-0.09311 1.0838179,-0.433528 0.2501725,-0.250173 0.4606226,-0.593983 0.4606226,-1.083818 l 0,-3.4953126 5.2294219,-1.1651043 c -0.126434,0.1991674 -0.298171,0.3686994 -0.298049,0.6773862 l 0,4.0643177 c -2.28e-4,0.465689 0.177747,0.77406 0.433527,1.029626 0.255294,0.255296 0.760583,0.406551 1.00253,0.406433 l 1.246392,0 c 0.241772,1.41e-4 0.662244,-0.03885 1.029627,-0.406433 0.255294,-0.255294 0.433755,-0.563434 0.433527,-1.029626 l 0,-4.0643177 C 14.736518,7.269516 14.558458,6.9611697 14.302763,6.7056503 14.06125,6.4641375 13.751783,6.3168517 13.327326,6.2992186 13.757621,6.1684332 13.908044,6.1269895 14.194381,5.7573096 14.480717,5.3876298 14.647379,4.7829928 14.445012,4.1722259 14.193164,3.4121158 13.328365,2.9626418 12.704132,3.0477647 c 0.01269,-0.00203 -0.17504,0.030213 -0.162574,0.027096 0.0025,-5.995e-4 -0.01866,-0.00257 -0.02709,0 -0.03542,0.010773 -0.118198,0.030465 -0.108383,0.027095 l -6.7467664,1.5173453 0,-0.2167637 C 5.6593121,3.912625 5.4492144,3.5691331 5.1986894,3.3187192 4.9484901,3.0685177 4.604593,2.8581348 4.1148736,2.8580965 Z"
     id="path4416"
     inkscape:connector-curvature="0"
     sodipodi:nodetypes="ccsscsscscccccccccccczscccccsccc" />
</svg>

<svg width="16" height="16" viewBox="0 0 16 16" fill="none" xmlns="http://www.w3.org/2000/svg">
<path d="M3.05816 2.85809C2.56838 2.85813 2.22475 3.06819 1.97434 3.31872C1.72414 3.56892 1.51372 3.91268 1.51372 4.40253V11.7183C1.51372 12.2082 1.72384 12.5517 1.97434 12.8021C2.31441 13.1422 2.7482 13.2357 3.05816 13.2357H4.11488C4.42489 13.2357 4.85843 13.1425 5.1987 12.8021C5.44887 12.5519 5.65932 12.2081 5.65932 11.7183V8.22299L10.8887 7.05789C10.7623 7.25705 10.5906 7.42659 10.5907 7.73527V11.7996C10.5905 12.2653 10.7684 12.5737 11.0242 12.8292C11.2795 13.0845 11.7848 13.2358 12.0268 13.2357H13.2731C13.5149 13.2358 13.9354 13.1968 14.3028 12.8292C14.5581 12.5739 14.7365 12.2658 14.7363 11.7996V7.73527C14.7365 7.26951 14.5585 6.96117 14.3028 6.70565C14.0613 6.46413 13.7518 6.31685 13.3273 6.29922C13.7576 6.16843 13.9081 6.12699 14.1944 5.75731C14.4807 5.38763 14.6474 4.78299 14.445 4.17222C14.1932 3.41211 13.3284 2.96264 12.7041 3.04776C12.7168 3.04573 12.5291 3.07797 12.5416 3.07486C12.5441 3.07426 12.5229 3.07229 12.5145 3.07486C12.4791 3.08563 12.3963 3.10532 12.4061 3.10195L5.65933 4.6193V4.40253C5.65932 3.91262 5.44922 3.56913 5.1987 3.31872C4.9485 3.06851 4.6046 2.85813 4.11488 2.85809H3.05816Z" fill="#FEFEFE"/>
</svg>
